X: 14860
T: Garrett Barry's
R: jig
M: 6/8
K: Gmajor
|:DEF ~G3|AGA c2A|dcA d2e|fed cAG|
~F3 GFG|AGA B/c/de|dcA GEA|DED D3:|
|:dcA d2e|fed efe|dcA c2d|ege edA|
dcA d2e|fed efe|dcA GEA|DED D3:|

